assets/images/sheep.svg

<?xml version="1.0" encoding="UTF-8"?>
<svg xmlns="http://www.w3.org/2000/svg" xmlns:xlink="http://www.w3.org/1999/xlink" width="75px" height="px" viewBox="0 0 75 78" version="1.1">
<g id="surface1">
<path style="fill-rule:nonzero;fill:rgb(100%,100%,100%);fill-opacity:1;stroke-width:4;stroke-linecap:round;stroke-linejoin:round;stroke:rgb(0%,0%,0%);stroke-opacity:1;stroke-miterlimit:4;" d="M 471.304978 550.709816 C 471.330403 617.015541 417.583384 670.77522 351.264038 670.77522 C 284.957404 670.77522 231.210385 617.015541 231.235809 550.709816 C 231.210385 484.404092 284.957404 430.644413 351.264038 430.644413 C 417.583384 430.644413 471.330403 484.404092 471.304978 550.709816 Z M 471.304978 550.709816 " transform="matrix(0.307284,0,0,0.306994,-70.441896,-131.580311)"/>
<path style=" stroke:none;fill-rule:nonzero;fill:rgb(0%,0%,0%);fill-opacity:0.313725;" d="M 37.546875 19.339844 C 20.546875 19.683594 13.214844 30.800781 13.214844 44.453125 C 13.214844 50.546875 16.539062 56.144531 20.945312 60.496094 C 11.5625 56.523438 4.167969 48.785156 0.652344 39.1875 C 1.546875 58.738281 17.710938 74.335938 37.5 74.335938 C 57.859375 74.335938 74.382812 57.832031 74.382812 37.488281 C 74.382812 33.046875 73.597656 28.789062 72.15625 24.84375 C 72.179688 25.410156 72.203125 25.980469 72.203125 26.550781 C 72.203125 36.542969 68.210938 45.605469 61.746094 52.246094 C 62.855469 49.792969 63.511719 47.171875 63.511719 44.453125 C 63.511719 30.585938 55.949219 19.339844 38.363281 19.339844 C 38.089844 19.339844 37.816406 19.332031 37.546875 19.339844 Z M 37.546875 19.339844 "/>
<path style="fill-rule:nonzero;fill:rgb(20%,20%,20%);fill-opacity:1;stroke-width:4;stroke-linecap:round;stroke-linejoin:round;stroke:rgb(0%,0%,0%);stroke-opacity:1;stroke-miterlimit:4;" d="M 359.45067 671.284187 C 359.45067 680.369255 374.120504 680.661911 392.184486 680.661911 C 410.261179 680.661911 424.918301 681.349017 424.918301 671.284187 C 424.918301 653.559398 410.261179 639.18107 392.184486 639.18107 C 374.120504 639.18107 359.45067 653.559398 359.45067 671.284187 Z M 359.45067 671.284187 " transform="matrix(0.307284,0,0,0.306994,-70.441896,-131.580311)"/>
<path style="fill-rule:nonzero;fill:rgb(20%,20%,20%);fill-opacity:1;stroke-width:4;stroke-linecap:round;stroke-linejoin:round;stroke:rgb(0%,0%,0%);stroke-opacity:1;stroke-miterlimit:4;" d="M 344.463031 671.284187 C 344.463031 680.369255 329.793197 680.661911 311.729216 680.661911 C 293.652522 680.661911 278.9954 681.349017 278.9954 671.284187 C 278.9954 653.559398 293.652522 639.18107 311.729216 639.18107 C 329.793197 639.18107 344.463031 653.559398 344.463031 671.284187 Z M 344.463031 671.284187 " transform="matrix(0.307284,0,0,0.306994,-70.441896,-131.580311)"/>
<path style="fill-rule:evenodd;fill:rgb(0%,0%,0%);fill-opacity:0.313725;stroke-width:4;stroke-linecap:butt;stroke-linejoin:round;stroke:rgb(0%,0%,0%);stroke-opacity:1;stroke-miterlimit:4;" d="M 299.131464 680.063874 C 299.131464 663.687849 308.5766 653.623019 308.5766 653.623019 C 308.5766 653.623019 304.801088 667.466932 305.423984 680.063874 Z M 299.131464 680.063874 " transform="matrix(0.307284,0,0,0.306994,-70.441896,-131.580311)"/>
<path style="fill-rule:evenodd;fill:rgb(26.666667%,66.666667%,0%);fill-opacity:1;stroke-width:4;stroke-linecap:butt;stroke-linejoin:round;stroke:rgb(0%,0%,0%);stroke-opacity:1;stroke-miterlimit:4;" d="M 353.04374 623.657565 C 306.644351 620.311105 274.546143 635.096607 274.546143 635.096607 C 274.546143 635.096607 284.792146 634.854847 290.563467 635.770989 C 279.732705 643.176464 276.186012 657.885621 276.186012 657.885621 C 276.186012 657.885621 288.262566 644.945125 300.644211 640.338971 C 290.131253 654.322849 288.732916 677.302726 288.732916 677.302726 C 288.732916 677.302726 300.822181 641.573217 323.411692 634.180466 C 340.636671 628.543652 358.840486 631.85194 358.840486 631.85194 C 358.840486 631.85194 394.955737 629.358 407.337382 650.925492 C 408.964539 651.701667 408.799281 637.832306 398.553278 632.882599 L 426.176805 631.45749 C 406.028029 622.970459 353.04374 623.657565 353.04374 623.657565 Z M 353.04374 623.657565 " transform="matrix(0.307284,0,0,0.306994,-70.441896,-131.580311)"/>
<path style="fill-rule:nonzero;fill:rgb(20%,20%,20%);fill-opacity:1;stroke-width:4;stroke-linecap:round;stroke-linejoin:round;stroke:rgb(0%,0%,0%);stroke-opacity:1;stroke-miterlimit:4;" d="M 348.607196 478.411001 C 318.479373 479.021762 297.682277 490.066354 284.982828 507.154934 C 260.918706 504.571924 240.922476 530.783744 240.922476 530.783744 C 240.922476 530.783744 259.812748 540.225089 272.982548 532.310646 C 270.579949 541.026712 269.423142 550.41716 269.423142 560.227506 C 269.423142 605.398361 325.547335 642.06946 351.264038 642.06946 C 377.985001 642.06946 433.104933 605.398361 433.104933 560.227506 C 433.104933 550.41716 431.948127 541.026712 429.545528 532.310646 C 442.715327 540.225089 461.580175 530.783744 461.580175 530.783744 C 461.580175 530.783744 441.609369 504.584648 417.545248 507.154934 C 404.489858 489.570111 382.841047 478.411001 351.264038 478.411001 C 350.374187 478.411001 349.484335 478.398277 348.607196 478.411001 Z M 348.607196 478.411001 " transform="matrix(0.307284,0,0,0.306994,-70.441896,-131.580311)"/>
<path style="fill-rule:evenodd;fill:rgb(0%,0%,0%);fill-opacity:0.313725;stroke-width:4;stroke-linecap:butt;stroke-linejoin:round;stroke:rgb(0%,0%,0%);stroke-opacity:1;stroke-miterlimit:4;" d="M 404.782238 680.063874 C 404.782238 663.687849 395.337102 653.623019 395.337102 653.623019 C 395.337102 653.623019 399.112614 667.466932 398.489718 680.063874 Z M 404.782238 680.063874 " transform="matrix(0.307284,0,0,0.306994,-70.441896,-131.580311)"/>
<path style="fill-rule:nonzero;fill:rgb(100%,100%,100%);fill-opacity:1;stroke-width:4;stroke-linecap:round;stroke-linejoin:round;stroke:rgb(0%,0%,0%);stroke-opacity:1;stroke-miterlimit:4;" d="M 347.641072 548.241325 C 347.641072 560.761922 337.496767 570.915821 324.975288 570.915821 C 312.453809 570.915821 302.309504 560.761922 302.309504 548.241325 C 302.322216 535.720727 312.453809 525.566828 324.975288 525.566828 C 337.496767 525.566828 347.641072 535.720727 347.641072 548.241325 Z M 347.641072 548.241325 " transform="matrix(0.307284,0,0,0.306994,-70.441896,-131.580311)"/>
<path style="fill-rule:nonzero;fill:rgb(100%,100%,100%);fill-opacity:1;stroke-width:4;stroke-linecap:round;stroke-linejoin:round;stroke:rgb(0%,0%,0%);stroke-opacity:1;stroke-miterlimit:4;" d="M 400.38383 548.241325 C 400.38383 560.761922 390.239525 570.915821 377.718046 570.915821 C 365.196567 570.915821 355.052262 560.761922 355.052262 548.241325 C 355.052262 535.720727 365.196567 525.566828 377.718046 525.566828 C 390.239525 525.566828 400.38383 535.720727 400.38383 548.241325 Z M 400.38383 548.241325 " transform="matrix(0.307284,0,0,0.306994,-70.441896,-131.580311)"/>
<path style=" stroke:none;fill-rule:nonzero;fill:rgb(0%,0%,0%);fill-opacity:1;" d="M 46.398438 37.953125 C 46.398438 39.234375 45.359375 40.273438 44.074219 40.273438 C 42.792969 40.273438 41.753906 39.234375 41.753906 37.953125 C 41.753906 36.671875 42.792969 35.632812 44.074219 35.632812 C 45.359375 35.632812 46.398438 36.671875 46.398438 37.953125 Z M 46.398438 37.953125 "/>
<path style=" stroke:none;fill-rule:nonzero;fill:rgb(0%,0%,0%);fill-opacity:1;" d="M 33.480469 37.953125 C 33.480469 39.234375 32.441406 40.273438 31.160156 40.273438 C 29.878906 40.273438 28.839844 39.234375 28.839844 37.953125 C 28.839844 36.671875 29.878906 35.632812 31.160156 35.632812 C 32.441406 35.632812 33.480469 36.671875 33.480469 37.953125 Z M 33.480469 37.953125 "/>
<path style=" stroke:none;fill-rule:nonzero;fill:rgb(0%,0%,0%);fill-opacity:0.313725;" d="M 61.636719 32.171875 L 61.0625 32.988281 C 61.136719 33.933594 61.167969 34.894531 61.167969 35.867188 C 61.167969 49.734375 44.226562 60.992188 36.019531 60.992188 C 29.65625 60.992188 17.242188 53.699219 12.644531 43.617188 C 14.984375 55.972656 30.214844 65.53125 37.496094 65.53125 C 45.707031 65.53125 62.648438 54.273438 62.648438 40.40625 C 62.648438 37.519531 62.316406 34.753906 61.636719 32.171875 Z M 61.636719 32.171875 "/>
<path style=" stroke:none;fill-rule:nonzero;fill:rgb(0%,0%,0%);fill-opacity:1;" d="M 42.597656 56.566406 C 41.894531 57.785156 40.601562 58.359375 39.710938 57.847656 C 38.820312 57.332031 38.671875 55.929688 39.375 54.707031 C 40.082031 53.488281 41.375 52.914062 42.265625 53.429688 C 43.152344 53.941406 43.304688 55.347656 42.597656 56.566406 Z M 42.597656 56.566406 "/>
<path style=" stroke:none;fill-rule:nonzero;fill:rgb(0%,0%,0%);fill-opacity:1;" d="M 32.539062 56.566406 C 33.242188 57.785156 34.535156 58.359375 35.425781 57.847656 C 36.316406 57.332031 36.464844 55.929688 35.761719 54.707031 C 35.054688 53.488281 33.761719 52.914062 32.875 53.429688 C 31.984375 53.941406 31.832031 55.347656 32.539062 56.566406 Z M 32.539062 56.566406 "/>
<path style="fill-rule:nonzero;fill:rgb(100%,100%,0%);fill-opacity:1;stroke-width:4;stroke-linecap:round;stroke-linejoin:round;stroke:rgb(0%,0%,0%);stroke-opacity:1;stroke-miterlimit:4;" d="M 276.135164 641.013353 C 272.842714 640.6698 269.855356 643.061946 269.512128 646.35751 C 269.461279 646.879202 269.499415 647.400893 269.575688 647.897136 C 266.791725 648.177068 264.478112 650.391076 264.17302 653.279466 C 263.829791 656.57503 266.245102 659.527041 269.550264 659.870594 C 270.300282 659.946939 271.012163 659.870594 271.698619 659.692455 C 271.533361 662.860777 273.872399 665.660098 277.075864 666.003651 C 280.368313 666.347203 283.317535 663.929608 283.673475 660.621321 C 283.749748 659.806973 283.673475 658.992625 283.444656 658.241898 C 286.012513 657.796552 288.11002 655.684337 288.402399 652.948637 C 288.745628 649.653074 286.330317 646.701063 283.025155 646.35751 C 282.503957 646.306613 281.982758 646.306613 281.486984 646.382958 C 281.207316 643.596362 279.020824 641.318733 276.135164 641.013353 Z M 276.427543 652.923189 C 276.46568 653.330363 276.529241 653.724813 276.656362 654.106538 C 276.478392 654.144711 276.300422 654.170159 276.135164 654.208332 C 276.160588 653.788434 276.147876 653.355811 276.084315 652.948637 C 276.198724 652.935913 276.313134 652.935913 276.427543 652.923189 Z M 276.427543 652.923189 " transform="matrix(0.307284,0,0,0.306994,-70.441896,-131.580311)"/>
</g>
</svg>

<?xml version="1.0" encoding="UTF-8"?>
<svg viewBox="0 0 244.0735 254.0336" xmlns="http://www.w3.org/2000/svg">
 <g transform="translate(-229.24 -428.63)">
  <path d="m471.31 550.71c0.01976 66.308-53.728 120.07-120.04 120.07s-120.06-53.764-120.04-120.07c-0.01976-66.308 53.728-120.07 120.04-120.07s120.06 53.764 120.04 120.07z" fill="#fff" stroke="#000" stroke-linecap="round" stroke-linejoin="round" stroke-width="4"/>
  <path transform="translate(239.74 384.07)" d="m111.69 107.53c-55.318 1.1211-79.188 37.344-79.188 81.812 0 19.851 10.824 38.075 25.156 52.25-30.524-12.934-54.598-38.139-66.031-69.406 2.9079 63.683 55.509 114.5 119.91 114.5 66.26 1e-5 120.03-53.771 120.03-120.03 0-14.468-2.5522-28.34-7.25-41.188 0.08415 1.8428 0.15625 3.699 0.15625 5.5625 0 32.537-12.988 62.062-34.031 83.688 3.6058-7.988 5.75-16.521 5.75-25.375 0-45.174-24.621-81.812-81.844-81.812-0.89395 0-1.7782-0.01779-2.6562 0z" fill-opacity=".31373"/>
  <path d="m359.45 671.28c0 9.0908 14.665 9.3814 32.735 9.3814s32.735 0.69349 32.735-9.3814c0-17.716-14.665-32.094-32.735-32.094s-32.735 14.378-32.735 32.094z" fill="#333" stroke="#000" stroke-linecap="round" stroke-linejoin="round" stroke-width="4"/>
  <path d="m344.46 671.28c0 9.0908-14.665 9.3814-32.735 9.3814s-32.735 0.69349-32.735-9.3814c0-17.716 14.665-32.094 32.735-32.094s32.735 14.378 32.735 32.094z" fill="#333" stroke="#000" stroke-linecap="round" stroke-linejoin="round" stroke-width="4"/>
  <path d="m299.13 680.06c0-16.368 9.4428-26.44 9.4428-26.44s-3.7771 13.849-3.1476 26.44h-6.2952z" fill-opacity=".31373" fill-rule="evenodd" stroke="#000" stroke-linejoin="round" stroke-width="4"/>
  <path d="m353.05 623.66c-46.403-3.3499-78.501 11.437-78.501 11.437s10.241-0.24759 16.017 0.6714c-10.831 7.4126-14.382 22.123-14.382 22.123s12.078-12.944 24.46-17.549c-10.513 13.981-11.913 36.96-11.913 36.96s12.09-35.725 34.679-43.124c17.221-5.6404 35.434-2.3231 35.434-2.3231s36.116-2.4911 48.491 19.076c1.6292 0.77175 1.4682-13.098-8.7848-18.047l27.631-1.4305c-20.153-8.4853-73.132-7.7944-73.132-7.7944z" fill="#4a0" fill-rule="evenodd" stroke="#000" stroke-linejoin="round" stroke-width="4"/>
  <path d="m348.61 478.41c-30.129 0.61059-50.932 11.653-63.625 28.75-24.064-2.5878-44.062 23.625-44.062 23.625s18.891 9.4463 32.062 1.5312c-2.3992 8.7117-3.5625 18.106-3.5625 27.906 0 45.174 56.126 81.844 81.844 81.844 26.717 0 81.844-36.669 81.844-81.844 0-9.8003-1.1639-19.195-3.5625-27.906 13.171 7.9151 32.031-1.5312 32.031-1.5312s-19.971-26.205-44.031-23.625c-13.062-17.595-34.708-28.75-66.281-28.75-0.89395 0-1.7782-0.01779-2.6562 0z" fill="#333" stroke="#000" stroke-linecap="round" stroke-linejoin="round" stroke-width="4"/>
  <path d="m404.78 680.06c0-16.368-9.4428-26.44-9.4428-26.44s3.7771 13.849 3.1476 26.44h6.2952z" fill-opacity=".31373" fill-rule="evenodd" stroke="#000" stroke-linejoin="round" stroke-width="4"/>
  <path d="m347.64 548.24c0.00373 12.519-10.144 22.67-22.663 22.67s-22.667-10.151-22.663-22.67 10.144-22.67 22.663-22.67 22.666 10.151 22.663 22.67z" fill="#fff" stroke="#000" stroke-linecap="round" stroke-linejoin="round" stroke-width="4"/>
  <path d="m400.38 548.24c0.00373 12.519-10.144 22.67-22.663 22.67s-22.667-10.151-22.663-22.67 10.144-22.67 22.663-22.67 22.666 10.151 22.663 22.67z" fill="#fff" stroke="#000" stroke-linecap="round" stroke-linejoin="round" stroke-width="4"/>
  <path d="m380.23 552.24c0.00125 4.173-3.3813 7.5565-7.5542 7.5565s-7.5555-3.3835-7.5542-7.5565 3.3813-7.5565 7.5542-7.5565 7.5555 3.3835 7.5542 7.5565z"/>
  <path d="m338.2 552.24c0.00125 4.173-3.3813 7.5565-7.5542 7.5565s-7.5555-3.3835-7.5542-7.5565 3.3813-7.5565 7.5542-7.5565 7.5555 3.3835 7.5542 7.5565z"/>
  <path d="m429.83 533.41-1.875 2.6562c0.24888 3.0755 0.34375 6.2026 0.34375 9.375 0 45.174-55.127 81.844-81.844 81.844-20.706 2e-5 -61.097-23.756-76.062-56.594 7.6158 40.246 57.172 71.375 80.875 71.375 26.717 0 81.844-36.669 81.844-81.844 0-9.3916-1.0754-18.41-3.2812-26.812z" fill-opacity=".31373"/>
  <path d="m367.87 612.87c-2.2927 3.9731-6.5002 5.8386-9.3968 4.1663s-3.3847-6.2489-1.0903-10.221 6.5003-5.8386 9.3968-4.1663 3.3847 6.2489 1.0903 10.221z"/>
  <path d="m335.13 612.87c2.2927 3.9731 6.5002 5.8386 9.3968 4.1663s3.3847-6.2489 1.0903-10.221-6.5003-5.8386-9.3968-4.1663-3.3847 6.2489-1.0903 10.221z"/>
  <path d="m276.13784,641.01688c-3.29969-.34546-6.27774,2.03968-6.6232,5.33939-.05524.5277-.0194,1.04476.05813,1.5457-2.78152.27262-5.09905,2.48582-5.40132,5.37306-.34546,3.29971 2.07403,6.24993 5.37372,6.59538 .75259.07879 1.46564.00197 2.15575-.18279-.16989,3.17347 2.17561,5.97779 5.37194,6.31242 3.29972.34544 6.24992-2.07401 6.59538-5.37374 .08637-.82493.00559-1.63304-.22216-2.37981 2.57267-.45549 4.66767-2.56718 4.95317-5.29429 .34545-3.29972-2.07401-6.24992-5.37372-6.59538-.5265-.05512-1.04256-.05004-1.54246.02704-.27261-2.78152-2.45798-5.06471-5.34523-5.36698zm.29299,11.90773c.03987.40692.10311.80409.22148,1.18576-.1726.03061-.34586.05813-.51355.10333 .02279-.4257.00753-.85594-.05633-1.26272 .11437-.01121.23577-.00874.3484-.02637z" fill="#ff0" stroke="#000" stroke-linecap="round" stroke-linejoin="round" stroke-width="4"/>
 </g>
</svg>
